X:1
T:Wave the Banners
T:Wave the Banners
T:Charles Hutchinson Gabriel
T:Edith Sanford Tillotson, 1909
T:Public Domain Courtesy of the Cyber Hymnal™
T:Public Domain Courtesy of the Cyber Hymnal™
C:Charles Hutchinson Gabriel
Z:Public Domain
Z:Courtesy of the Cyber Hymnal™
%%score ( 1 2 ) ( 3 4 )
L:1/8
Q:1/4=100
M:6/8
K:D
V:1 treble 
V:2 treble 
V:3 bass 
V:4 bass 
V:1
 [FA]2 [FA] [FA][DF][EG] | [FA]2 [Fd] [Fd]2 [Ad] | [Gd]2 [Gd] [Gc]2 [GB] | [FA]3- [FA]2 z | %4
w: 1.~Wave the ban- ners of|joy to- day, For|Christ the King is|born! *|
w: 2.~Wave the ban- ners of|love to- day, For|Christ has come to|reign! *|
 [FA]2 [EG] [EG][^DF][EG] | [GB]2 [FA] [FA]2 [FB] | [Ec]2 [Ec] [Ec]2 [EB] | [EA-]3 [GA]2 z x3 | %8
w: An- gels throng- ing the|heav’n- ly way, Brought|tid- ings thro’ the|morn: “Peace,|
w: Hear the words that the|an- gels say, And|join the hap- py|strain. “Peace,|
 [FA]2 [FA] [FA][DF][EG] | [FA]2 [Fd] [Fd]3 | [Gd][Gd][Gd] [Gc]2 [GB] | [FA]3- [FA]2 z | %12
w: good- will,” is their wel-|come cry, “Glo-|ry to God on high!”|Wave *|
w: good- will,” is the mes-|sage clear, “Glo-|ry!” O tid- ings dear;|Wave *|
 [GB]2 [GB] [^Ge][Ge][Ed] | [Ec]2 [Ec] !fermata![Dd]2 [DG] | [DF]2 [DF] [CE]2 [CE] | D3- D2 z || %16
w: the ban- ners, O wave|them high, For Christ|the King is born!|Wave *|
w: the ban- ners, O wave|them here, For Christ|has come to reign!||
"^Refrain" d2 d dcB | d3 [Gc]2 z | c2 c cBA | B3 [FA]2 z | [FA][EG][EG] [EG]2 [EG] | [EG]3 [Gc]3 | %22
w: the ban- ners to- day,|Let them|* mer- ri- ly sway,|Bear- ing|* the joy- ful tid-|ings All|
w: ||||||
 [GB]2 [FA] [FA]2 [EG] | [DF]3- [DF]2 z | d2 d dcB | d3 [Gc]2 z | c2 c cBA | B3 [FA]2 z | %28
w: a- long our way.|Wave *|the ban- ners to- day,|Let them|* mer- ri- ly sway,|Christ is|
w: ||||||
 [GB]2 [GB] [^Ge]2 [Ed] | [Ec]2 [Ec] !fermata![Dd]2 [DG] | [DF]2 [DF] [CE][CE][CE] | D3- D2 z |] %32
w: * born this Christ-|mas morn, So wave|the ban- ners to- day.||
w: ||||
V:2
 x6 | x6 | x6 | x6 | x6 | x6 | x6 | x9 | x6 | x6 | x6 | x6 | x6 | x6 | x6 | D3- D2 x || F3 F3 | %17
 GGG x3 | G3 G3 | FFF x3 | x6 | x6 | x6 | x6 | F3 F3 | GGG x3 | G3 G3 | FFF x3 | x6 | x6 | x6 | %31
 D3- D2 x |] %32
V:3
 [D,D]2 [D,D] [D,D][D,A,][D,A,] | [D,D]2 [D,A,] [D,A,]2 [F,=C] | [G,B,]2 [G,B,] [G,B,]2 [G,D] | %3
w: ~ ~ ~ ~ ~|~ ~ ~ ~|~ ~ ~ ~|
 [D,D]3- [D,D]2 z | [A,,D]2 [A,,A,] [A,,A,][A,,A,][A,,C] | [D,D]2 [D,D] [D,D]2 [D,D] | %6
w: ~ *|~ ~ ~ ~ ~|~ ~ ~ ~|
 [E,A,]2 [E,A,] [E,A,]2 [E,D] | z z x7 | [D,D]2 [D,D] [D,D][D,A,][D,A,] | [D,D]2 [D,A,] [D,A,]3 | %10
w: ~ ~ ~ ~||~ ~ ~ ~ ~|~ ~ ~|
 [G,B,][G,B,][G,B,] [G,B,]2 [G,D] | [D,D]3- [D,D]2 z | [G,D]2 [G,D] [E,D][E,D][^G,B,] | %13
w: ~ ~ ~ ~ ~|~ *|~ ~ ~ ~ ~|
 A,2 [G,A,] !fermata![F,A,]2 [G,B,] | A,2 A, [A,,G,]2 [A,,G,] | [D,F,]3- [D,F,]2 z || %16
w: ~ ~ ~ ~|~ ~ ~ ~|~ *|
 [D,A,]3 [D,A,]3 | [E,A,][E,A,][E,A,] A,2 z | [A,,E]3 [A,,C]3 | [D,D][D,D][D,D] [D,D]2 z | %20
w: ~ Wave|the ban- ners to-|day, Let|them mer- ri- ly|
 [A,,D][A,,A,][A,,A,] [A,,A,]2 [A,,A,] | [A,,A,]3 [A,,E]3 | [D,D]2 [D,D] [D,D]2 [D,A,] | %23
w: sway, ~ ~ ~ ~|~ ~|~ ~ ~ ~|
 [D,A,]3- [D,A,]2 z | [D,A,]3 [D,A,]3 | [E,A,][E,A,][E,A,] A,2 z | [A,,E]3 [A,,C]3 | %27
w: ~ *|~ Wave|the ban- ners to-|day, Let|
 [D,D][D,D][D,D] [D,D]2 z | [G,D]2 [G,D] [E,D]2 [^G,B,] | A,2 [G,A,] !fermata![F,A,]2 [G,B,] | %30
w: them mer- ri- ly|sway, * * *||
 A,2 A, [A,,G,][A,,G,][A,,G,] | [D,F,]3- [D,F,]2 z |] %32
w: ||
V:4
 x6 | x6 | x6 | x6 | x6 | x6 | x6 | [A,C]3 B,A, [A,C]2 F,E, | x6 | x6 | x6 | x6 | x6 | A,2 x4 | %14
 A,2 A, x3 | x6 || x6 | x3 A,2 x | x6 | x6 | x6 | x6 | x6 | x6 | x6 | x3 A,2 x | x6 | x6 | x6 | %29
 A,2 x4 | A,2 A, x3 | x6 |] %32

